Newaita-dark/apps/16/libreoffice-math.svg

<svg height="16" viewBox="0 0 16 16" width="16" xmlns="http://www.w3.org/2000/svg" xmlns:xlink="http://www.w3.org/1999/xlink"><linearGradient id="a" gradientTransform="matrix(.0372059 0 0 .031253 -1.315168 6.719393)" gradientUnits="userSpaceOnUse" x1="254" x2="254" y1="233.5" y2="254.666672"><stop offset="0" stop-opacity=".27451"/><stop offset="1" stop-opacity="0"/></linearGradient><linearGradient id="b"><stop offset="0" stop-opacity=".313726"/><stop offset=".222222" stop-opacity=".27451"/><stop offset="1" stop-opacity="0"/></linearGradient><radialGradient id="c" cx="450.908936" cy="189.579361" gradientTransform="matrix(.00000009 -.0390662 -.0703192 -.00000005 25.238424 31.797666)" gradientUnits="userSpaceOnUse" r="21.166656" xlink:href="#b"/><radialGradient id="d" cx="450.908936" cy="189.579361" gradientTransform="matrix(-.00000009 .0390662 .0703192 .00000005 -9.361907 -3.763739)" gradientUnits="userSpaceOnUse" r="21.166656" xlink:href="#b"/><radialGradient id="e" cx="450.908936" cy="189.579361" gradientTransform="matrix(-.00000009 -.0390662 .0703192 -.00000005 -9.361907 31.797666)" gradientUnits="userSpaceOnUse" r="21.166656" xlink:href="#b"/><radialGradient id="f" cx="450.908936" cy="189.579361" gradientTransform="matrix(.00000009 .0390662 -.0703192 .00000005 25.238423 -3.76374)" gradientUnits="userSpaceOnUse" r="21.166656" xlink:href="#b"/><linearGradient id="g"><stop offset="0" stop-color="#78909c"/><stop offset="1" stop-color="#90a4ae"/></linearGradient><linearGradient id="h" gradientUnits="userSpaceOnUse" x1="7.9382592" x2="7.9382592" xlink:href="#g" y1="14.01696600048" y2="1.4480552201"/><linearGradient id="i" gradientUnits="userSpaceOnUse" x1="7.9382592" x2="7.9382592" y1="13.35544440048" y2="2.1095768201"><stop offset="0" stop-color="#e0e0e0"/><stop offset="1" stop-color="#eee"/></linearGradient><linearGradient id="j" gradientUnits="userSpaceOnUse" x1="7.73796425002" x2="7.73796425002" xlink:href="#g" y1="10.68501799997" y2="4.40056100001"/><path d="m3.804688 14.015625h8.269531v.664063h-8.269531zm0 0" fill="url(#a)"/><path d="m12.074219 14.015625h1.320312v-.660156h-1.320312zm0 0" fill="url(#c)"/><path d="m3.804688 14.015625h-1.324219v.664063h1.324219zm0 0" fill="url(#d)"/><path d="m3.804688 14.015625h-1.324219v-.660156h1.324219zm0 0" fill="url(#e)"/><path d="m12.074219 14.015625h1.320312v.664063h-1.320312zm0 0" fill="url(#f)"/><path d="m3.308594 1.449219c-.367188 0-.664063.292969-.664063.660156v11.246094c0 .367187.296875.660156.664063.660156h9.261718c.363282 0 .660157-.292969.660157-.660156v-7.527344l-4.378907-4.378906zm6.945312 0 2.976563 2.976562v-2.316406c0-.367187-.296875-.660156-.660157-.660156zm0 0" fill="url(#h)"/><path d="m3.636719 2.109375c-.179688 0-.328125.148437-.328125.332031v10.582032c0 .183593.148437.332031.328125.332031h8.601562c.183594 0 .332031-.148438.332031-.332031v-6.945313l-3.96875-3.96875zm0 0" fill="url(#i)"/><path d="m3.308594 1.449219c-.367188 0-.664063.292969-.664063.660156v.164063c0-.363282.296875-.660157.664063-.660157h5.542968l4.378907 4.378907v-.164063l-4.378907-4.378906zm6.945312 0 .164063.164062h2.152343c.363282 0 .660157.296875.660157.660157v-.164063c0-.367187-.296875-.660156-.660157-.660156zm0 0" fill="#fff" fill-opacity=".392157"/><path d="m3.636719 2.109375c-.179688 0-.328125.148437-.328125.332031v.246094c0-.183594.148437-.328125.328125-.328125h4.964843l3.96875 3.96875v-.25l-3.96875-3.96875zm0 0" fill-opacity=".235294"/><path d="m3.308594 13.035156v.15625c0 .183594.148437.332032.328125.332032h8.601562c.183594 0 .332031-.148438.332031-.332032v-.15625c0 .183594-.148437.332032-.332031.332032h-8.601562c-.179688 0-.328125-.148438-.328125-.332032zm0 0" fill="#fff" fill-opacity=".392157"/><path d="m439.800544 255.093763c-21.73021 0-39.681252 17.951043-39.681252 40.153648v1279.72038c0 22.202605 17.951042 40.153648 39.681252 40.153648h1040.21568c22.202605 0 40.153648-17.951043 40.153648-40.153648v-839.919836l-479.954192-479.954192zm0 0" fill="none" stroke="#212121" stroke-linecap="round" stroke-linejoin="round" stroke-width="11.338583" transform="scale(.00826902)"/><path d="m10.253906 1.449219 2.976563 2.976562v-.164062l-2.816407-2.8125zm-7.609375 11.746093v.160157c0 .367187.296875.660156.664063.660156h9.261718c.363282 0 .660157-.292969.660157-.660156v-.160157c0 .363282-.296875.660157-.660157.660157h-9.261718c-.367188 0-.664063-.296875-.664063-.660157zm0 0" fill-opacity=".235294"/><path d="m400.119292 175.258863c-44.405211 0-80.307296 35.42969-80.307296 79.8349v1360.027676c0 44.405211 35.902085 79.8349 80.307296 79.8349h1120.05058c43.932814 0 79.8349-35.429689 79.8349-79.8349v-910.306819l-529.555757-529.555757zm839.919836 0 359.965644 359.965644v-280.130744c0-44.40521-35.902086-79.8349-79.8349-79.8349zm0 0" fill="none" stroke="#212121" stroke-linecap="round" stroke-linejoin="round" stroke-width="11.338583" transform="scale(.00826902)"/><g fill-rule="evenodd"><path d="m7.832031 5.226562c-.160156 0-.296875.113282-.324219.269532l-.546874 2.832031-.296876-1.195313c-.039062-.148437-.171874-.25-.320312-.25h-.664062c-.183594-.003906-.332032.144532-.332032.328126 0 .183593.148438.335937.332032.332031h.40625l.597656 2.394531c.085937.34375.578125.332031.644531-.015625l.777344-4.03125h2.039062c.1875.003906.339844-.148437.339844-.332031s-.152344-.335938-.339844-.332032zm.820313 2.3125c-.265625 0-.421875.300782-.273438.519532l.539063.808594-.539063.808593c-.101562.152344-.0625.359375.089844.460938.15625.101562.363281.058593.460938-.09375l.386718-.582031.386719.582031c.101563.152343.308594.195312.460937.09375.152344-.101563.195313-.308594.089844-.460938l-.539062-.808593.539062-.808594c.152344-.222656-.011718-.527344-.28125-.519532-.109375.003907-.210937.058594-.269531.152344l-.386719.578125-.386718-.578125c-.058594-.09375-.164063-.152344-.277344-.152344zm0 0" fill="url(#j)"/><path d="m7.832031 5.226562c-.160156 0-.296875.113282-.324219.269532l-.546874 2.832031-.296876-1.195313c-.039062-.148437-.171874-.25-.320312-.25h-.664062c-.183594-.003906-.332032.144532-.332032.328126 0 .03125.003906.0625.011719.09375.039063-.140626.167969-.242188.320313-.242188h.664062c.148438 0 .28125.105469.320312.25l.296876 1.195312.546874-2.828124c.027344-.15625.164063-.269532.324219-.269532h2.3125c.15625-.003906.285157.097656.324219.238282.007812-.027344.015625-.058594.015625-.089844 0-.183594-.152344-.335938-.339844-.332032zm.820313 2.3125c-.230469 0-.375.222657-.316406.421876.039062-.132813.15625-.238282.316406-.238282.113281 0 .21875.054688.277344.148438l.386718.582031.386719-.582031c.058594-.089844.160156-.148438.269531-.148438.164063-.003906.289063.101563.328125.238282.058594-.203126-.09375-.425782-.328125-.421876-.109375.003907-.210937.058594-.269531.152344l-.386719.578125-.386718-.578125c-.058594-.09375-.164063-.152344-.277344-.152344zm.207031 1.417969-.480469.71875c-.054687.082031-.070312.1875-.042968.277344.007812-.035156.023437-.066406.042968-.097656l.539063-.808594zm.914063 0-.058594.089844.539062.808594c.019532.03125.035156.0625.042969.097656.027344-.089844.015625-.195313-.042969-.277344zm0 0" fill="#fff" fill-opacity=".392157"/><path d="m10.457031 5.664062c-.046875.125-.171875.210938-.3125.207032h-2.039062l-.777344 4.03125c-.066406.347656-.558594.363281-.644531.019531l-.597656-2.394531h-.40625c-.140626 0-.257813-.085938-.308594-.207032-.015625.035157-.023438.078126-.023438.121094 0 .1875.148438.335938.332032.332032h.40625l.597656 2.394531c.085937.34375.578125.332031.644531-.015625l.777344-4.03125h2.039062c.1875.003906.339844-.148438.339844-.332032 0-.042968-.011719-.085937-.027344-.125zm-.167969 2.3125c-.011718.023438-.023437.042969-.035156.0625l-.539062.808594.082031.125.457031-.683594c.066406-.101562.074219-.214843.035156-.3125zm-1.941406 0c-.039062.097657-.035156.210938.03125.3125l.457032.683594.082031-.125-.539063-.808594c-.011718-.019531-.023437-.039062-.03125-.0625zm.96875 1.46875-.386718.578126c-.097657.15625-.304688.199218-.460938.097656-.054688-.039063-.097656-.09375-.121094-.152344-.058594.140625-.011718.308594.121094.398438.15625.101562.363281.058593.460938-.09375l.386718-.582032.386719.582032c.101563.152343.308594.195312.460937.09375.132813-.089844.179688-.257813.125-.398438-.027343.058594-.066406.113281-.125.152344-.152343.101562-.359374.058594-.460937-.097656zm0 0" fill-opacity=".235294"/></g><path d="m250.601069-47.76597c-5.124511 0-9.499093 3.624654-10.37401 8.624176l-17.498329 90.616347-9.499092-38.246348c-1.249881-4.749546-5.499475-7.999236-10.249022-7.999236h-21.247971c-5.874439-.124988-10.623985 4.624559-10.623985 10.498998s4.749546 10.748973 10.623985 10.623985h12.998759l19.123174 76.617683c2.749737 10.99895 18.498233 10.623986 20.623031-.499952l24.872624-128.987682h65.24377c5.999427.124988 10.873961-4.749547 10.873961-10.623986s-4.874534-10.748973-10.873961-10.623985zm26.247493 73.992934c-8.499188 0-13.498711 9.624081-8.749164 16.623413l17.248353 25.872529-17.248353 25.872529c-3.24969 4.874535-1.999809 11.498902 2.874725 14.748592 4.999523 3.249689 11.62389 1.874821 14.748592-2.999714l12.373818-18.623221 12.373819 18.623221c3.249689 4.874535 9.874057 6.249403 14.748591 2.999714 4.874535-3.24969 6.249403-9.874057 2.874726-14.748592l-17.248353-25.872529 17.248353-25.872529c4.874534-7.12432-.374965-16.873389-8.999141-16.623413-3.499666.124988-6.749355 1.874821-8.624176 4.874534l-12.373819 18.498234-12.373818-18.498234c-1.874821-2.999713-5.249499-4.874534-8.874153-4.874534zm0 0" fill="none" stroke="#212121" stroke-linecap="round" stroke-linejoin="round" stroke-width="3" transform="matrix(.031253 0 0 .031253 0 6.719392)"/></svg>

<?xml version="1.0" encoding="UTF-8"?>
<svg xmlns="http://www.w3.org/2000/svg" xmlns:xlink="http://www.w3.org/1999/xlink" width="16px" height="16px" viewBox="0 0 16 16" version="1.1">
<defs>
<linearGradient id="linear0" gradientUnits="userSpaceOnUse" x1="254" y1="233.5" x2="254" y2="254.666672" gradientTransform="matrix(0.0372059,0,0,0.031253,-1.315168,6.719393)">
<stop offset="0" style="stop-color:rgb(0%,0%,0%);stop-opacity:0.27451;"/>
<stop offset="1" style="stop-color:rgb(0%,0%,0%);stop-opacity:0;"/>
</linearGradient>
<radialGradient id="radial0" gradientUnits="userSpaceOnUse" cx="450.908936" cy="189.579361" fx="450.908936" fy="189.579361" r="21.166656" gradientTransform="matrix(0.0000000870852,-0.0390662,-0.0703192,-0.0000000507693,25.238424,31.797666)">
<stop offset="0" style="stop-color:rgb(0%,0%,0%);stop-opacity:0.313726;"/>
<stop offset="0.222222" style="stop-color:rgb(0%,0%,0%);stop-opacity:0.27451;"/>
<stop offset="1" style="stop-color:rgb(0%,0%,0%);stop-opacity:0;"/>
</radialGradient>
<radialGradient id="radial1" gradientUnits="userSpaceOnUse" cx="450.908936" cy="189.579361" fx="450.908936" fy="189.579361" r="21.166656" gradientTransform="matrix(-0.0000000870852,0.0390662,0.0703192,0.0000000507693,-9.361907,-3.763739)">
<stop offset="0" style="stop-color:rgb(0%,0%,0%);stop-opacity:0.313726;"/>
<stop offset="0.222222" style="stop-color:rgb(0%,0%,0%);stop-opacity:0.27451;"/>
<stop offset="1" style="stop-color:rgb(0%,0%,0%);stop-opacity:0;"/>
</radialGradient>
<radialGradient id="radial2" gradientUnits="userSpaceOnUse" cx="450.908936" cy="189.579361" fx="450.908936" fy="189.579361" r="21.166656" gradientTransform="matrix(-0.0000000870852,-0.0390662,0.0703192,-0.0000000507693,-9.361907,31.797666)">
<stop offset="0" style="stop-color:rgb(0%,0%,0%);stop-opacity:0.313726;"/>
<stop offset="0.222222" style="stop-color:rgb(0%,0%,0%);stop-opacity:0.27451;"/>
<stop offset="1" style="stop-color:rgb(0%,0%,0%);stop-opacity:0;"/>
</radialGradient>
<radialGradient id="radial3" gradientUnits="userSpaceOnUse" cx="450.908936" cy="189.579361" fx="450.908936" fy="189.579361" r="21.166656" gradientTransform="matrix(0.0000000870852,0.0390662,-0.0703192,0.0000000507693,25.238423,-3.76374)">
<stop offset="0" style="stop-color:rgb(0%,0%,0%);stop-opacity:0.313726;"/>
<stop offset="0.222222" style="stop-color:rgb(0%,0%,0%);stop-opacity:0.27451;"/>
<stop offset="1" style="stop-color:rgb(0%,0%,0%);stop-opacity:0;"/>
</radialGradient>
<linearGradient id="linear1" gradientUnits="userSpaceOnUse" x1="254" y1="233.5" x2="254" y2="-168.666672" gradientTransform="matrix(0.031253,0,0,0.031253,0,6.719391)">
<stop offset="0" style="stop-color:rgb(87.843138%,87.843138%,87.843138%);stop-opacity:1;"/>
<stop offset="1" style="stop-color:rgb(93.333334%,93.333334%,93.333334%);stop-opacity:1;"/>
</linearGradient>
<linearGradient id="linear2" gradientUnits="userSpaceOnUse" x1="413.712219" y1="-474.701691" x2="413.712219" y2="-72.535034" gradientTransform="matrix(0.031253,0,0,0.031253,0,6.719391)">
<stop offset="0" style="stop-color:rgb(47.058824%,56.470591%,61.176473%);stop-opacity:1;"/>
<stop offset="1" style="stop-color:rgb(56.470591%,64.313728%,68.235296%);stop-opacity:1;"/>
</linearGradient>
<linearGradient id="linear3" gradientUnits="userSpaceOnUse" x1="243.416672" y1="127.666656" x2="243.416672" y2="-73.416664" gradientTransform="matrix(0.031253,0,0,0.031253,0.130463,6.719399)">
<stop offset="0" style="stop-color:rgb(47.058824%,56.470591%,61.176473%);stop-opacity:1;"/>
<stop offset="1" style="stop-color:rgb(56.470591%,64.313728%,68.235296%);stop-opacity:1;"/>
</linearGradient>
</defs>
<g id="surface1">
<path style=" stroke:none;fill-rule:nonzero;fill:url(#linear0);" d="M 3.804688 14.015625 L 12.074219 14.015625 L 12.074219 14.679688 L 3.804688 14.679688 Z M 3.804688 14.015625 "/>
<path style=" stroke:none;fill-rule:nonzero;fill:url(#radial0);" d="M 12.074219 14.015625 L 13.394531 14.015625 L 13.394531 13.355469 L 12.074219 13.355469 Z M 12.074219 14.015625 "/>
<path style=" stroke:none;fill-rule:nonzero;fill:url(#radial1);" d="M 3.804688 14.015625 L 2.480469 14.015625 L 2.480469 14.679688 L 3.804688 14.679688 Z M 3.804688 14.015625 "/>
<path style=" stroke:none;fill-rule:nonzero;fill:url(#radial2);" d="M 3.804688 14.015625 L 2.480469 14.015625 L 2.480469 13.355469 L 3.804688 13.355469 Z M 3.804688 14.015625 "/>
<path style=" stroke:none;fill-rule:nonzero;fill:url(#radial3);" d="M 12.074219 14.015625 L 13.394531 14.015625 L 13.394531 14.679688 L 12.074219 14.679688 Z M 12.074219 14.015625 "/>
<path style=" stroke:none;fill-rule:nonzero;fill:url(#linear1);" d="M 9.953125 1.449219 L 3.308594 1.449219 C 2.941406 1.449219 2.644531 1.742188 2.644531 2.109375 L 2.644531 13.355469 C 2.644531 13.722656 2.941406 14.015625 3.308594 14.015625 L 12.570312 14.015625 C 12.933594 14.015625 13.230469 13.722656 13.230469 13.355469 L 13.230469 4.453125 Z M 9.953125 1.449219 "/>
<path style=" stroke:none;fill-rule:nonzero;fill:url(#linear2);" d="M 9.953125 1.449219 L 13.230469 4.453125 L 13.230469 2.109375 C 13.230469 1.742188 12.933594 1.449219 12.570312 1.449219 Z M 9.953125 1.449219 "/>
<path style=" stroke:none;fill-rule:nonzero;fill:rgb(0%,0%,0%);fill-opacity:0.235294;" d="M 2.644531 13.191406 L 2.644531 13.355469 C 2.644531 13.722656 2.941406 14.015625 3.308594 14.015625 L 12.570312 14.015625 C 12.933594 14.015625 13.230469 13.722656 13.230469 13.355469 L 13.230469 13.191406 C 13.230469 13.554688 12.933594 13.851562 12.570312 13.851562 L 3.308594 13.851562 C 2.941406 13.851562 2.644531 13.554688 2.644531 13.191406 Z M 2.644531 13.191406 "/>
<path style=" stroke:none;fill-rule:nonzero;fill:rgb(100%,100%,100%);fill-opacity:1;" d="M 3.308594 1.449219 C 2.941406 1.449219 2.644531 1.742188 2.644531 2.109375 L 2.644531 2.441406 C 2.644531 2.074219 2.941406 1.777344 3.308594 1.777344 L 9.953125 1.777344 L 13.230469 4.785156 L 13.230469 4.453125 L 9.953125 1.449219 Z M 3.308594 1.449219 "/>
<path style=" stroke:none;fill-rule:nonzero;fill:rgb(100%,100%,100%);fill-opacity:0.392157;" d="M 9.953125 1.449219 L 10.3125 1.777344 L 12.570312 1.777344 C 12.933594 1.777344 13.230469 2.074219 13.230469 2.441406 L 13.230469 2.109375 C 13.230469 1.742188 12.933594 1.449219 12.570312 1.449219 Z M 9.953125 1.449219 "/>
<path style=" stroke:none;fill-rule:nonzero;fill:rgb(0%,0%,0%);fill-opacity:0.235294;" d="M 9.953125 1.449219 L 13.230469 4.453125 L 13.230469 4.175781 L 10.253906 1.449219 Z M 9.953125 1.449219 "/>
<path style="fill:none;stroke-width:11.338583;stroke-linecap:round;stroke-linejoin:round;stroke:rgb(12.941177%,12.941177%,12.941177%);stroke-opacity:1;stroke-miterlimit:4;" d="M 1203.664647 175.258863 L 400.119292 175.258863 C 355.714081 175.258863 319.811996 210.688553 319.811996 255.093763 L 319.811996 1615.121439 C 319.811996 1659.52665 355.714081 1694.956339 400.119292 1694.956339 L 1520.169872 1694.956339 C 1564.102686 1694.956339 1600.004772 1659.52665 1600.004772 1615.121439 L 1600.004772 538.531278 Z M 1203.664647 175.258863 " transform="matrix(0.00826902,0,0,0.00826902,0,0)"/>
<path style="fill:none;stroke-width:3;stroke-linecap:round;stroke-linejoin:round;stroke:rgb(12.941177%,12.941177%,12.941177%);stroke-opacity:1;stroke-miterlimit:4;" d="M 318.469588 -168.629428 L 423.334574 -72.513607 L 423.334574 -147.506445 C 423.334574 -159.255323 413.835481 -168.629428 402.211591 -168.629428 Z M 318.469588 -168.629428 " transform="matrix(0.031253,0,0,0.031253,0,6.719392)"/>
<path style=" stroke:none;fill-rule:evenodd;fill:url(#linear3);" d="M 7.832031 5.253906 C 7.671875 5.253906 7.535156 5.363281 7.507812 5.519531 L 6.960938 8.351562 L 6.664062 7.15625 C 6.625 7.007812 6.492188 6.90625 6.34375 6.90625 L 5.679688 6.90625 C 5.496094 6.902344 5.347656 7.050781 5.347656 7.238281 C 5.347656 7.421875 5.496094 7.570312 5.679688 7.566406 L 6.085938 7.566406 L 6.683594 9.964844 C 6.769531 10.304688 7.261719 10.292969 7.328125 9.945312 L 8.105469 5.914062 L 10.144531 5.914062 C 10.332031 5.917969 10.484375 5.769531 10.484375 5.582031 C 10.484375 5.398438 10.332031 5.25 10.144531 5.253906 Z M 8.652344 7.5625 C 8.386719 7.566406 8.230469 7.863281 8.378906 8.082031 L 8.917969 8.890625 L 8.378906 9.699219 C 8.277344 9.851562 8.316406 10.058594 8.46875 10.160156 C 8.625 10.261719 8.832031 10.21875 8.929688 10.066406 L 9.316406 9.484375 L 9.703125 10.066406 C 9.804688 10.21875 10.011719 10.261719 10.164062 10.160156 C 10.316406 10.058594 10.359375 9.851562 10.253906 9.699219 L 9.714844 8.890625 L 10.253906 8.082031 C 10.40625 7.859375 10.242188 7.554688 9.972656 7.5625 C 9.863281 7.566406 9.761719 7.625 9.703125 7.714844 L 9.316406 8.292969 L 8.929688 7.714844 C 8.871094 7.621094 8.765625 7.5625 8.652344 7.5625 Z M 8.652344 7.5625 "/>
<path style=" stroke:none;fill-rule:evenodd;fill:rgb(100%,100%,100%);fill-opacity:0.392157;" d="M 7.832031 5.253906 C 7.671875 5.253906 7.535156 5.363281 7.507812 5.519531 L 6.960938 8.351562 L 6.664062 7.15625 C 6.625 7.007812 6.492188 6.90625 6.34375 6.90625 L 5.679688 6.90625 C 5.496094 6.902344 5.347656 7.050781 5.347656 7.238281 C 5.347656 7.269531 5.351562 7.296875 5.359375 7.328125 C 5.398438 7.1875 5.527344 7.085938 5.679688 7.089844 L 6.34375 7.089844 C 6.492188 7.089844 6.625 7.191406 6.664062 7.339844 L 6.960938 8.535156 L 7.507812 5.703125 C 7.535156 5.546875 7.671875 5.433594 7.832031 5.433594 L 10.144531 5.433594 C 10.300781 5.429688 10.429688 5.535156 10.46875 5.675781 C 10.476562 5.644531 10.484375 5.613281 10.484375 5.582031 C 10.484375 5.398438 10.332031 5.25 10.144531 5.253906 Z M 8.652344 7.5625 C 8.421875 7.566406 8.277344 7.785156 8.335938 7.984375 C 8.375 7.851562 8.492188 7.746094 8.652344 7.746094 C 8.765625 7.746094 8.871094 7.800781 8.929688 7.898438 L 9.316406 8.476562 L 9.703125 7.898438 C 9.761719 7.804688 9.863281 7.75 9.972656 7.746094 C 10.136719 7.742188 10.261719 7.851562 10.300781 7.984375 C 10.359375 7.78125 10.207031 7.558594 9.972656 7.5625 C 9.863281 7.566406 9.761719 7.625 9.703125 7.714844 L 9.316406 8.292969 L 8.929688 7.714844 C 8.871094 7.621094 8.765625 7.5625 8.652344 7.5625 Z M 8.859375 8.980469 L 8.378906 9.699219 C 8.324219 9.785156 8.308594 9.886719 8.335938 9.976562 C 8.34375 9.945312 8.359375 9.910156 8.378906 9.882812 L 8.917969 9.074219 Z M 9.773438 8.980469 L 9.714844 9.074219 L 10.253906 9.882812 C 10.273438 9.910156 10.289062 9.945312 10.296875 9.976562 C 10.324219 9.886719 10.3125 9.785156 10.253906 9.699219 Z M 9.773438 8.980469 "/>
<path style=" stroke:none;fill-rule:evenodd;fill:rgb(0%,0%,0%);fill-opacity:0.235294;" d="M 10.457031 5.691406 C 10.410156 5.8125 10.285156 5.898438 10.144531 5.894531 L 8.105469 5.894531 L 7.328125 9.929688 C 7.261719 10.273438 6.769531 10.289062 6.683594 9.945312 L 6.085938 7.550781 L 5.679688 7.550781 C 5.539062 7.550781 5.421875 7.464844 5.371094 7.34375 C 5.355469 7.382812 5.347656 7.421875 5.347656 7.46875 C 5.347656 7.652344 5.496094 7.800781 5.679688 7.796875 L 6.085938 7.796875 L 6.683594 10.195312 C 6.769531 10.535156 7.261719 10.523438 7.328125 10.175781 L 8.105469 6.144531 L 10.144531 6.144531 C 10.332031 6.148438 10.484375 6 10.484375 5.8125 C 10.484375 5.769531 10.472656 5.726562 10.457031 5.691406 Z M 10.289062 8 C 10.277344 8.023438 10.265625 8.042969 10.253906 8.0625 L 9.714844 8.875 L 9.796875 8.996094 L 10.253906 8.3125 C 10.320312 8.214844 10.328125 8.097656 10.289062 8 Z M 8.347656 8 C 8.308594 8.097656 8.3125 8.214844 8.378906 8.3125 L 8.835938 8.996094 L 8.917969 8.875 L 8.378906 8.0625 C 8.367188 8.042969 8.355469 8.023438 8.347656 8 Z M 9.316406 9.46875 L 8.929688 10.046875 C 8.832031 10.203125 8.625 10.246094 8.46875 10.144531 C 8.414062 10.105469 8.371094 10.050781 8.347656 9.992188 C 8.289062 10.136719 8.335938 10.304688 8.46875 10.390625 C 8.625 10.496094 8.832031 10.453125 8.929688 10.296875 L 9.316406 9.71875 L 9.703125 10.296875 C 9.804688 10.453125 10.011719 10.496094 10.164062 10.390625 C 10.296875 10.304688 10.34375 10.136719 10.289062 9.992188 C 10.261719 10.050781 10.222656 10.105469 10.164062 10.144531 C 10.011719 10.246094 9.804688 10.203125 9.703125 10.046875 Z M 9.316406 9.46875 "/>
<path style="fill:none;stroke-width:3;stroke-linecap:round;stroke-linejoin:round;stroke:rgb(12.941177%,12.941177%,12.941177%);stroke-opacity:1;stroke-miterlimit:4;" d="M 250.601069 -46.891054 C 245.476558 -46.891054 241.101976 -43.391388 240.227059 -38.391865 L 222.72873 52.224481 L 213.229638 13.978134 C 211.979757 9.228587 207.730163 5.978898 202.980616 5.978898 L 181.732645 5.978898 C 175.858206 5.85391 171.10866 10.603456 171.10866 16.602883 C 171.10866 22.477322 175.858206 27.226868 181.732645 27.10188 L 194.731404 27.10188 L 213.854578 103.844552 C 216.604315 114.718513 232.352811 114.343549 234.477609 103.219612 L 259.350233 -25.768071 L 324.594003 -25.768071 C 330.59343 -25.643083 335.467964 -30.392629 335.467964 -36.392056 C 335.467964 -42.266495 330.59343 -47.016042 324.594003 -46.891054 Z M 276.848562 26.976892 C 268.349374 27.10188 263.349851 36.600973 268.099398 43.600305 L 285.347751 69.472834 L 268.099398 95.345363 C 264.849708 100.219898 266.099589 106.844265 270.974123 110.093955 C 275.973646 113.343645 282.598013 111.968776 285.722715 107.094242 L 298.096533 88.47102 L 310.470352 107.094242 C 313.720041 111.968776 320.344409 113.343645 325.218943 110.093955 C 330.093478 106.844265 331.468346 100.219898 328.093669 95.345363 L 310.845316 69.472834 L 328.093669 43.600305 C 332.968203 36.475985 327.718704 26.726916 319.094528 26.976892 C 315.594862 27.10188 312.345173 28.976701 310.470352 31.851427 L 298.096533 50.34966 L 285.722715 31.851427 C 283.847894 28.851713 280.473216 26.976892 276.848562 26.976892 Z M 276.848562 26.976892 " transform="matrix(0.031253,0,0,0.031253,0,6.719392)"/>
</g>
</svg>
